!!!!SEGMENT: pl-cz--i-17--002_maintzer-franz--partita-es-andante.krn
!!!cenid: 17xx:2175
!!!COM: Maintzer, Franz
!!!COM-rismID: pe30102207
!!!CDT: <1781->1785
!!!CNT:
!!!OPR: Partita Es
!!!OTL: Andante
!!!OMV: 002
!!!PDT:
!!!AGN: Secular
!!!SMS-siglum: PL-CZ
!!!SMS-shelfmark: I-17
!!!SMS-shelfwork: 001-002 M
!!!SMS-variant:
!!!SMS-altvar:
!!!NIFC-rismSourceID: 300000800
!!!NIFC-islandoraID: pl-cz:993
!!!URL-pdf-islandora: https://repozytorium.nifc.pl/islandora/object/pl-cz%3A993/datastream/PDF/view
!!!URL-scan: https://polish.musicsources.pl/pl/lokalizacje/galeria/rekopisy/573 @EN{Scan on Polish Music Sources Website} @PL{Skany w portalu Dziedzictwo Muzyki Polskiej w otwartym dostępie}
!!!ONB-nifc: UWAGA: części Partity: 1. Allegro molto, 2. Andante, 3. Presto. 2 cor, reszta partii zaginiona
!!!AIN: 2 clars 2 empty 2 fagot 2 oboe
!!!key:
**kern	**dynam	**kern	**kern	**kern	**kern	**kern	**kern	**kern
*group2	*group2	*group2	*group1	*group1	*group1	*group1	*group1	*group1
*part6	*part6	*part5	*part8	*part7	*part2	*part1	*part4	*part3
*staff6	*	*staff5	*staff8	*staff7	*staff2	*staff1	*staff4	*staff3
*Iempty	*	*Iempty	*Ifagot	*Ifagot	*Iclars	*Iclars	*Ioboe	*Ioboe
*I"Cornu Secondo in B.	*	*I"Cornu Primo. in Dis.	*I"Fagotto Secondo.	*I"Fagotto Primo	*I"Clarinetto Secondo in B.	*I"Clarinetto Primo in B.	*I"Oboae Secondo.	*I"Oboae Primo.
*I'cor 2 in B|b	*	*I'cor 1 in D|x	*I'fag 2	*I'fag 1	*I'cl 2 in B|b	*I'cl 1 in B|b	*I'ob 2	*I'ob 1
*clefG2	*	*clefG2	*clefF4	*clefF4	*clefG2	*clefG2	*clefG2	*clefG2
*ITrd1c2	*	*ITrd5c9	*	*	*ITrd1c2	*ITrd1c2	*	*
*k[b-e-]	*	*k[b-e-]	*k[b-e-]	*k[b-e-]	*k[b-e-]	*k[b-e-]	*k[b-e-]	*k[b-e-]
*B-:	*	*B-:	*B-:	*B-:	*B-:	*B-:	*B-:	*B-:
*M2/4	*	*M2/4	*M2/4	*M2/4	*M2/4	*M2/4	*M2/4	*M2/4
*2\right	*	*	*	*	*	*	*	*
!	!	!LO:TX:t=P:problem=partia nie zachowała się	!LO:TX:t=P:problem=partia nie zachowała się	!LO:TX:t=P:problem=partia nie zachowała się	!LO:TX:t=P:problem=partia nie zachowała się	!LO:TX:t=P:problem=partia nie zachowała się	!LO:TX:t=P:problem=partia nie zachowała się	!LO:TX:t=P:problem=partia nie zachowała się
8r	.	8ryy	8ryy	8ryy	8ryy	8ryy	8ryy	8ryy
=1	=1	=1	=1	=1	=1	=1	=1	=1
!LO:TX:a:t=7	!	!	!	!	!	!	!	!
!LO:N:vis=00	!	!	!	!	!	!	!	!
0r	.	2ryy	2ryy	2ryy	2ryy	2ryy	2ryy	2ryy
=2	=2	=2	=2	=2	=2	=2	=2	=2
.	.	2ryy	2ryy	2ryy	2ryy	2ryy	2ryy	2ryy
=3	=3	=3	=3	=3	=3	=3	=3	=3
.	.	2ryy	2ryy	2ryy	2ryy	2ryy	2ryy	2ryy
=4	=4	=4	=4	=4	=4	=4	=4	=4
.	.	2ryy	2ryy	2ryy	2ryy	2ryy	2ryy	2ryy
=5	=5	=5	=5	=5	=5	=5	=5	=5
!LO:N:vis=0	!	!	!	!	!	!	!	!
1r	.	2ryy	2ryy	2ryy	2ryy	2ryy	2ryy	2ryy
=6	=6	=6	=6	=6	=6	=6	=6	=6
.	.	2ryy	2ryy	2ryy	2ryy	2ryy	2ryy	2ryy
=7	=7	=7	=7	=7	=7	=7	=7	=7
!LO:N:vis=1	!	!	!	!	!	!	!	!
2r	.	2ryy	2ryy	2ryy	2ryy	2ryy	2ryy	2ryy
=8	=8	=8	=8	=8	=8	=8	=8	=8
4r	.	2ryy	2ryy	2ryy	2ryy	2ryy	2ryy	2ryy
8r	.	.	.	.	.	.	.	.
(<16d/LL	.	.	.	.	.	.	.	.
16f/JJ)	.	.	.	.	.	.	.	.
=9	=9	=9	=9	=9	=9	=9	=9	=9
!LO:TX:t=P:problem=all\right&colon; global	!	!	!	!	!	!	!	!
8b-\	.	2ryy	2ryy	2ryy	2ryy	2ryy	2ryy	2ryy
4b-\	.	.	.	.	.	.	.	.
8dd\	.	.	.	.	.	.	.	.
=10	=10	=10	=10	=10	=10	=10	=10	=10
16dd\LL	.	2ryy	2ryy	2ryy	2ryy	2ryy	2ryy	2ryy
16cc\JJ	.	.	.	.	.	.	.	.
4cc\	.	.	.	.	.	.	.	.
8b-\	.	.	.	.	.	.	.	.
=11	=11	=11	=11	=11	=11	=11	=11	=11
8f/	.	2ryy	2ryy	2ryy	2ryy	2ryy	2ryy	2ryy
4f/	.	.	.	.	.	.	.	.
8cc\	.	.	.	.	.	.	.	.
=12	=12	=12	=12	=12	=12	=12	=12	=12
16cc\LL	.	2ryy	2ryy	2ryy	2ryy	2ryy	2ryy	2ryy
16b-\JJ	.	.	.	.	.	.	.	.
4.b-\	.	.	.	.	.	.	.	.
=13	=13	=13	=13	=13	=13	=13	=13	=13
4d/	.	2ryy	2ryy	2ryy	2ryy	2ryy	2ryy	2ryy
16f/LL	.	.	.	.	.	.	.	.
16d/	.	.	.	.	.	.	.	.
16f/	.	.	.	.	.	.	.	.
16b-/JJ	.	.	.	.	.	.	.	.
=14	=14	=14	=14	=14	=14	=14	=14	=14
8d/	.	2ryy	2ryy	2ryy	2ryy	2ryy	2ryy	2ryy
8r	.	.	.	.	.	.	.	.
4r	.	.	.	.	.	.	.	.
=15	=15	=15	=15	=15	=15	=15	=15	=15
4r	.	2ryy	2ryy	2ryy	2ryy	2ryy	2ryy	2ryy
8b-\L	.	.	.	.	.	.	.	.
8f\J	.	.	.	.	.	.	.	.
=16	=16	=16	=16	=16	=16	=16	=16	=16
8qqf/	.	.	.	.	.	.	.	.
4.d/	.	2ryy	2ryy	2ryy	2ryy	2ryy	2ryy	2ryy
8r	.	.	.	.	.	.	.	.
!LO:LB:g=original	!	!	!	!	!	!	!	!
=17	=17	=17	=17	=17	=17	=17	=17	=17
!	!LO:DY:b:t=Pia	!	!	!	!	!	!	!
[<2f/	p	2ryy	2ryy	2ryy	2ryy	2ryy	2ryy	2ryy
=18	=18	=18	=18	=18	=18	=18	=18	=18
2f/_<	.	2ryy	2ryy	2ryy	2ryy	2ryy	2ryy	2ryy
=19	=19	=19	=19	=19	=19	=19	=19	=19
2f/_<	.	2ryy	2ryy	2ryy	2ryy	2ryy	2ryy	2ryy
=20	=20	=20	=20	=20	=20	=20	=20	=20
2f/]	.	2ryy	2ryy	2ryy	2ryy	2ryy	2ryy	2ryy
=21	=21	=21	=21	=21	=21	=21	=21	=21
!	!LO:DY:b:t=for	!	!	!	!	!	!	!
2dd\	f	2ryy	2ryy	2ryy	2ryy	2ryy	2ryy	2ryy
=22	=22	=22	=22	=22	=22	=22	=22	=22
!	!LO:DY:b:t=p.	!	!	!	!	!	!	!
4ee-\	p	2ryy	2ryy	2ryy	2ryy	2ryy	2ryy	2ryy
4r	.	.	.	.	.	.	.	.
=23	=23	=23	=23	=23	=23	=23	=23	=23
!	!LO:DY:b:t=for	!	!	!	!	!	!	!
2eeX\	f	2ryy	2ryy	2ryy	2ryy	2ryy	2ryy	2ryy
=24	=24	=24	=24	=24	=24	=24	=24	=24
4ff\	.	2ryy	2ryy	2ryy	2ryy	2ryy	2ryy	2ryy
4r	.	.	.	.	.	.	.	.
=25	=25	=25	=25	=25	=25	=25	=25	=25
!LO:TX:t=P:problem=mixed beam	!LO:DY:b:t=for	!	!	!	!	!	!	!
8b-\L	f	2ryy	2ryy	2ryy	2ryy	2ryy	2ryy	2ryy
16f/L	.	.	.	.	.	.	.	.
16d/JJ	.	.	.	.	.	.	.	.
8f/L	.	.	.	.	.	.	.	.
16d/L	.	.	.	.	.	.	.	.
16B-/JJ	.	.	.	.	.	.	.	.
=26	=26	=26	=26	=26	=26	=26	=26	=26
!	!LO:DY:b:t=p&colon;:rj	!	!	!	!	!	!	!
8F/L	p	2ryy	2ryy	2ryy	2ryy	2ryy	2ryy	2ryy
8F/	.	.	.	.	.	.	.	.
8F/	.	.	.	.	.	.	.	.
8F/J	.	.	.	.	.	.	.	.
=27	=27	=27	=27	=27	=27	=27	=27	=27
4F/	.	2ryy	2ryy	2ryy	2ryy	2ryy	2ryy	2ryy
!	!LO:DY:b:t=for:rj	!	!	!	!	!	!	!
16F/LL	f	.	.	.	.	.	.	.
16F/	.	.	.	.	.	.	.	.
16F/	.	.	.	.	.	.	.	.
16F/JJ	.	.	.	.	.	.	.	.
=28	=28	=28	=28	=28	=28	=28	=28	=28
4F/	.	2ryy	2ryy	2ryy	2ryy	2ryy	2ryy	2ryy
4r	.	.	.	.	.	.	.	.
=29	=29	=29	=29	=29	=29	=29	=29	=29
!	!LO:DY:b:t=p.	!	!	!	!	!	!	!
8f/	p	2ryy	2ryy	2ryy	2ryy	2ryy	2ryy	2ryy
8r	.	.	.	.	.	.	.	.
4r	.	.	.	.	.	.	.	.
!LO:LB:g=original	!	!	!	!	!	!	!	!
=30	=30	=30	=30	=30	=30	=30	=30	=30
8f/	.	2ryy	2ryy	2ryy	2ryy	2ryy	2ryy	2ryy
8r	.	.	.	.	.	.	.	.
4r	.	.	.	.	.	.	.	.
=31	=31	=31	=31	=31	=31	=31	=31	=31
8f/	.	2ryy	2ryy	2ryy	2ryy	2ryy	2ryy	2ryy
8r	.	.	.	.	.	.	.	.
4r	.	.	.	.	.	.	.	.
=32	=32	=32	=32	=32	=32	=32	=32	=32
8f/	.	2ryy	2ryy	2ryy	2ryy	2ryy	2ryy	2ryy
8r	.	.	.	.	.	.	.	.
4r	.	.	.	.	.	.	.	.
=33	=33	=33	=33	=33	=33	=33	=33	=33
4d/	.	2ryy	2ryy	2ryy	2ryy	2ryy	2ryy	2ryy
16f/LL	.	.	.	.	.	.	.	.
16d/	.	.	.	.	.	.	.	.
16f/	.	.	.	.	.	.	.	.
16b-/JJ	.	.	.	.	.	.	.	.
=34	=34	=34	=34	=34	=34	=34	=34	=34
8d/	.	2ryy	2ryy	2ryy	2ryy	2ryy	2ryy	2ryy
8r	.	.	.	.	.	.	.	.
4r	.	.	.	.	.	.	.	.
=35	=35	=35	=35	=35	=35	=35	=35	=35
4r	.	2ryy	2ryy	2ryy	2ryy	2ryy	2ryy	2ryy
8b-\L	.	.	.	.	.	.	.	.
8f\J	.	.	.	.	.	.	.	.
=36	=36	=36	=36	=36	=36	=36	=36	=36
4d/	.	2ryy	2ryy	2ryy	2ryy	2ryy	2ryy	2ryy
4r	.	.	.	.	.	.	.	.
=37	=37	=37	=37	=37	=37	=37	=37	=37
!LO:TX:a:t=2	!	!	!	!	!	!	!	!
!LO:N:vis=0	!	!	!	!	!	!	!	!
1r	.	2ryy	2ryy	2ryy	2ryy	2ryy	2ryy	2ryy
=38	=38	=38	=38	=38	=38	=38	=38	=38
.	.	2ryy	2ryy	2ryy	2ryy	2ryy	2ryy	2ryy
==	==	==	==	==	==	==	==	==
*-	*-	*-	*-	*-	*-	*-	*-	*-
!!!system-decoration: [(g1)(g2)]
!!!RDF**kern: | = vertical stroke
!!!RDF**kern: > = above
!!!RDF**kern: < = below
!!!ENC: Marcin Jachim
!!!END: 2021-06-16
!!!EED: Antoni Szymański
!!!EEV: 2021-06-22
